Papirus/32x32/apps/org.kde.merkuro.calendar.svg

<!-- Created with Inkscape (http://www.inkscape.org/) -->
<svg width="32" height="32" version="1.1" viewBox="0 0 32 32" xmlns="http://www.w3.org/2000/svg">
 <rect x="2" y="5" width="28" height="25" ry="3" style="opacity:.2"/>
 <rect x="2" y="5" width="28" height="24" ry="3" style="fill:#e97e10"/>
 <path d="m5 4c-1.6619984 0-3 1.3380017-3 3v3h28v-3c0-1.6619983-1.338002-3-3-3z" style="fill:#643106"/>
 <path d="m16.913 22.048155 1.331671 1.500516c0.14168 0.1703 0.371398 0.1703 0.513072 0l2.920257-3.308516" stroke="#0097d7" style="fill:none;stroke-width:.75;stroke:#ffffff"/>
 <path d="m12 14c-0.553999 0-1 0.446001-1 1v2c0 0.553999 0.446001 1 1 1h2c0.553999 0 1-0.446001 1-1v-2c0-0.553999-0.446001-1-1-1zm12 0c-0.554 0-1 0.446001-1 1v2c0 0.553999 0.446 1 1 1h2c0.554 0 1-0.446001 1-1v-2c0-0.553999-0.446-1-1-1zm-18 6c-0.5539994 0-1 0.446-1 1v2c0 0.554 0.4460006 1 1 1h2c0.5539994 0 1-0.446 1-1v-2c0-0.554-0.4460006-1-1-1zm6 0c-0.553999 0-1 0.446-1 1v2c0 0.554 0.446001 1 1 1h2c0.553999 0 1-0.446 1-1v-2c0-0.554-0.446001-1-1-1z" style="fill:#ffffff"/>
 <rect x="17" y="14" width="4" height="4" ry="1" style="fill:#ffffff;opacity:.6"/>
 <rect x="23" y="20" width="4" height="4" ry="1" style="fill:#ffffff;opacity:.6"/>
 <path d="m5 4c-1.6619983 0-3 1.3380017-3 3v1c0-1.6619983 1.3380017-3 3-3h22c1.661998 0 3 1.3380017 3 3v-1c0-1.6619983-1.338002-3-3-3z" style="fill:#ffffff;opacity:.1"/>
 <rect x="7" y="2" width="3" height="6" ry="1.5" style="fill:#351a03"/>
 <rect x="22" y="2" width="3" height="6" ry="1.5" style="fill:#351a03"/>
</svg>

<svg xmlns="http://www.w3.org/2000/svg" width="32" height="32" version="1.1">
 <rect style="opacity:0.2" width="28" height="22" x="2" y="8" ry="3"/>
 <rect style="fill:#e97e10" width="28" height="22" x="2" y="7" ry="3"/>
 <rect style="opacity:0.6;fill:#ffffff" width="4" height="4" x="17" y="14" ry="1"/>
 <rect style="opacity:0.6;fill:#ffffff" width="4" height="4" x="23" y="20" ry="1"/>
 <path style="fill:#643106" d="M 5,4 C 3.338,4 2,5.338 2,7 V 10 H 30 V 7 C 30,5.338 28.662,4 27,4 Z"/>
 <path style="fill:#ffffff;opacity:0.1" d="M 5 4 C 3.338 4 2 5.338 2 7 L 2 8 C 2 6.338 3.338 5 5 5 L 27 5 C 28.662 5 30 6.338 30 8 L 30 7 C 30 5.338 28.662 4 27 4 L 5 4 z"/>
 <rect style="fill:#351a03" width="3" height="6" x="7" y="2" ry="1.5"/>
 <rect style="fill:#351a03" width="3" height="6" x="22" y="2" ry="1.5"/>
 <path style="fill:none;stroke:#ffffff;stroke-linecap:round;stroke-linejoin:round" d="M 17.5,22.5 18.5,23.5 21,20.5"/>
 <rect style="fill:#ffffff" width="4" height="4" x="23" y="14" ry="1"/>
 <rect style="fill:#ffffff" width="4" height="4" x="11" y="14" ry="1"/>
 <rect style="fill:#ffffff" width="4" height="4" x="11" y="20" ry="1"/>
 <rect style="fill:#ffffff" width="4" height="4" x="5" y="20" ry="1"/>
 <rect style="opacity:0.2" width="28" height="1" x="2" y="10"/>
</svg>
